packages/dnb-ui-lib/assets/icons/lightbulb.svg

<svg width="16" height="16" viewBox="0 0 16 16" fill="none" xmlns="http://www.w3.org/2000/svg">
<path d="M8.68334 0.75C8.68334 0.335786 8.34755 0 7.93334 0C7.51912 0 7.18334 0.335786 7.18334 0.75H8.68334ZM7.18334 1.25C7.18334 1.66421 7.51912 2 7.93334 2C8.34755 2 8.68334 1.66421 8.68334 1.25H7.18334ZM1 7.03333C0.585786 7.03333 0.25 7.36912 0.25 7.78333C0.25 8.19755 0.585786 8.53333 1 8.53333V7.03333ZM1.5 8.53333C1.91421 8.53333 2.25 8.19755 2.25 7.78333C2.25 7.36912 1.91421 7.03333 1.5 7.03333V8.53333ZM2.96366 2.21967C2.67077 1.92678 2.1959 1.92678 1.903 2.21967C1.61011 2.51256 1.61011 2.98744 1.903 3.28033L2.96366 2.21967ZM2.403 3.78033C2.6959 4.07322 3.17077 4.07322 3.46367 3.78033C3.75656 3.48744 3.75656 3.01256 3.46367 2.71967L2.403 3.78033ZM15 8.53333C15.4142 8.53333 15.75 8.19755 15.75 7.78333C15.75 7.36912 15.4142 7.03333 15 7.03333V8.53333ZM14.5 7.03333C14.0858 7.03333 13.75 7.36912 13.75 7.78333C13.75 8.19755 14.0858 8.53333 14.5 8.53333V7.03333ZM14.0303 3.21367C14.3232 2.92077 14.3232 2.4459 14.0303 2.15301C13.7374 1.86011 13.2626 1.86011 12.9697 2.15301L14.0303 3.21367ZM12.4697 2.65301C12.1768 2.9459 12.1768 3.42077 12.4697 3.71367C12.7626 4.00656 13.2374 4.00656 13.5303 3.71367L12.4697 2.65301ZM9.37824 11.7282L9.12023 11.024L9.37824 11.7282ZM6.48843 11.7282L6.74644 11.024L6.48843 11.7282ZM7.62222 14.5C7.20801 14.5 6.87222 14.8358 6.87222 15.25C6.87222 15.6642 7.20801 16 7.62222 16V14.5ZM8.24445 16C8.65866 16 8.99445 15.6642 8.99445 15.25C8.99445 14.8358 8.65866 14.5 8.24445 14.5V16ZM7.18334 0.75V1.25H8.68334V0.75H7.18334ZM1 8.53333H1.5V7.03333H1V8.53333ZM1.903 3.28033L2.403 3.78033L3.46367 2.71967L2.96366 2.21967L1.903 3.28033ZM15 7.03333H14.5V8.53333H15V7.03333ZM12.9697 2.15301L12.4697 2.65301L13.5303 3.71367L14.0303 3.21367L12.9697 2.15301ZM4.48334 7.78333C4.48334 5.87795 6.02795 4.33333 7.93334 4.33333V2.83333C5.19953 2.83333 2.98334 5.04952 2.98334 7.78333H4.48334ZM7.93334 4.33333C9.83872 4.33333 11.3833 5.87795 11.3833 7.78333H12.8833C12.8833 5.04952 10.6671 2.83333 7.93334 2.83333V4.33333ZM6.74644 11.024C5.42466 10.5397 4.48334 9.27049 4.48334 7.78333H2.98334C2.98334 9.91994 4.33665 11.7386 6.23041 12.4324L6.74644 11.024ZM11.3833 7.78333C11.3833 9.27049 10.442 10.5397 9.12023 11.024L9.63626 12.4324C11.53 11.7386 12.8833 9.91994 12.8833 7.78333H11.3833ZM8.89079 12.25H6.97588V13.75H8.89079V12.25ZM8.42778 12.0075C8.42778 11.9888 8.42887 11.9892 8.42572 12.0205C8.42318 12.0457 8.41897 12.0804 8.41294 12.1221C8.40078 12.2062 8.38321 12.3053 8.3624 12.3968C8.33982 12.4961 8.32059 12.5543 8.31241 12.5735C8.30666 12.587 8.32073 12.5476 8.36532 12.4924C8.38903 12.4631 8.43784 12.4086 8.5171 12.3581C8.60083 12.3047 8.72891 12.25 8.89079 12.25V13.75C9.25456 13.75 9.46628 13.5165 9.53193 13.4353C9.61388 13.3339 9.664 13.2281 9.69259 13.1609C9.75307 13.0188 9.79568 12.8586 9.82504 12.7295C9.88132 12.4821 9.92778 12.1701 9.92778 12.0075H8.42778ZM5.93889 12.0075C5.93889 12.1701 5.98535 12.4821 6.04163 12.7295C6.07099 12.8586 6.1136 13.0188 6.17408 13.1609C6.20267 13.2281 6.25279 13.3339 6.33474 13.4353C6.40039 13.5165 6.61211 13.75 6.97588 13.75V12.25C7.13776 12.25 7.26584 12.3047 7.34957 12.3581C7.42883 12.4086 7.47764 12.4631 7.50135 12.4924C7.54594 12.5476 7.56001 12.587 7.55426 12.5735C7.54608 12.5543 7.52684 12.4961 7.50427 12.3968C7.48346 12.3053 7.46589 12.2062 7.45373 12.1221C7.4477 12.0804 7.44349 12.0457 7.44095 12.0205C7.4378 11.9892 7.43889 11.9888 7.43889 12.0075H5.93889ZM9.12023 11.024C8.72781 11.1677 8.42778 11.545 8.42778 12.0075H9.92778C9.92778 12.2184 9.79246 12.3752 9.63626 12.4324L9.12023 11.024ZM6.23041 12.4324C6.07421 12.3752 5.93889 12.2184 5.93889 12.0075H7.43889C7.43889 11.545 7.13886 11.1677 6.74644 11.024L6.23041 12.4324ZM7.62222 16H8.24445V14.5H7.62222V16Z" fill="black"/>
</svg>

<svg width="16" height="16" viewBox="0 0 16 16" fill="none" xmlns="http://www.w3.org/2000/svg"><path d="M8.683.75a.75.75 0 00-1.5 0h1.5zm-1.5.5a.75.75 0 101.5 0h-1.5zM1 7.033a.75.75 0 000 1.5v-1.5zm.5 1.5a.75.75 0 100-1.5v1.5zM2.964 2.22a.75.75 0 00-1.061 1.06l1.06-1.06zm-.561 1.56a.75.75 0 001.06-1.06l-1.06 1.06zM15 8.533a.75.75 0 000-1.5v1.5zm-.5-1.5a.75.75 0 000 1.5v-1.5zm-.47-3.82a.75.75 0 00-1.06-1.06l1.06 1.06zm-1.56-.56a.75.75 0 001.06 1.06l-1.06-1.06zm-3.092 9.075l-.258-.704.258.704zm-2.89 0l.258-.704-.258.704zM7.622 14.5a.75.75 0 000 1.5v-1.5zm.622 1.5a.75.75 0 000-1.5V16zM7.184.75v.5h1.5v-.5h-1.5zM1 8.533h.5v-1.5H1v1.5zm.903-5.253l.5.5 1.06-1.06-.5-.5-1.06 1.06zM15 7.033h-.5v1.5h.5v-1.5zm-2.03-4.88l-.5.5 1.06 1.06.5-.5-1.06-1.06zm-8.487 5.63a3.45 3.45 0 013.45-3.45v-1.5a4.95 4.95 0 00-4.95 4.95h1.5zm3.45-3.45a3.45 3.45 0 013.45 3.45h1.5a4.95 4.95 0 00-4.95-4.95v1.5zm-1.187 6.691a3.452 3.452 0 01-2.263-3.24h-1.5a4.952 4.952 0 003.247 4.648l.516-1.408zm4.637-3.24a3.452 3.452 0 01-2.263 3.24l.516 1.408a4.952 4.952 0 003.247-4.649h-1.5zM8.891 12.25H6.976v1.5H8.89v-1.5zm-.463-.242c0-.02 0-.019-.002.013l-.013.101c-.012.084-.03.183-.05.275-.023.1-.042.157-.05.176-.006.014.008-.025.052-.08a.63.63 0 01.152-.135.696.696 0 01.374-.108v1.5a.826.826 0 00.64-.315c.083-.101.133-.207.162-.274a2.62 2.62 0 00.132-.431c.056-.248.103-.56.103-.723h-1.5zm-2.49 0c0 .162.047.474.104.722.029.129.072.289.132.43.029.068.079.174.16.275a.826.826 0 00.642.315v-1.5a.7.7 0 01.374.108.63.63 0 01.151.134c.045.056.059.095.053.081a1.26 1.26 0 01-.05-.176 3.627 3.627 0 01-.063-.377c-.003-.03-.002-.031-.002-.012h-1.5zm3.182-.984a1.05 1.05 0 00-.692.984h1.5a.45.45 0 01-.292.424l-.516-1.408zm-2.89 1.408a.45.45 0 01-.291-.425h1.5c0-.462-.3-.84-.693-.983l-.516 1.408zM7.622 16h.622v-1.5h-.622V16z" fill="#000"/></svg>
